public/images/arrow-down-circle-outline.svg

<svg height="35" width="35" xmlns="http://www.w3.org/2000/svg"><path d="m17.5 0c-9.646 0-17.5 7.854-17.5 17.5s7.854 17.5 17.5 17.5 17.5-7.854 17.5-17.5-7.854-17.5-17.5-17.5zm0 2.692c8.19 0 14.808 6.618 14.808 14.808s-6.618 14.808-14.808 14.808-14.808-6.618-14.808-14.808 6.618-14.808 14.808-14.808zm0 6.226a1.346 1.346 0 0 0 -1.346 1.346v11.24l-4.437-4.404a1.346 1.346 0 0 0 -1.903.008 1.346 1.346 0 0 0 .007 1.904l6.73 6.678a1.346 1.346 0 0 0 1.897 0l6.73-6.678a1.346 1.346 0 0 0 .008-1.904 1.346 1.346 0 0 0 -1.903-.008l-4.437 4.402v-11.238a1.346 1.346 0 0 0 -1.346-1.346z" fill="#254f9a" stroke-linecap="round" stroke-linejoin="round" stroke-width="2.692"/></svg>

<svg xmlns="http://www.w3.org/2000/svg" height="35" width="35" class="ionicon"><path d="M17.5 0C7.854 0 0 7.854 0 17.5S7.854 35 17.5 35 35 27.146 35 17.5 27.146 0 17.5 0zm0 2.692c8.19 0 14.808 6.618 14.808 14.808S25.69 32.308 17.5 32.308 2.692 25.69 2.692 17.5 9.31 2.692 17.5 2.692zm0 6.226a1.346 1.346 0 00-1.346 1.346v11.24L11.717 17.1a1.346 1.346 0 00-1.903.008 1.346 1.346 0 00.007 1.904l6.73 6.678a1.346 1.346 0 001.897 0l6.73-6.678a1.346 1.346 0 00.008-1.904 1.346 1.346 0 00-1.903-.008l-4.437 4.402V10.264A1.346 1.346 0 0017.5 8.918z" style="line-height:normal;font-variant-ligatures:normal;font-variant-position:normal;font-variant-caps:normal;font-variant-numeric:normal;font-variant-alternates:normal;font-variant-east-asian:normal;font-feature-settings:normal;font-variation-settings:normal;text-indent:0;text-align:start;text-decoration-line:none;text-decoration-style:solid;text-decoration-color:#000;text-transform:none;text-orientation:mixed;white-space:normal;shape-padding:0;shape-margin:0;inline-size:0;isolation:auto;mix-blend-mode:normal;solid-color:#000;solid-opacity:1" color="#000" font-weight="400" font-family="sans-serif" overflow="visible" fill="#254f9a" stroke-width="2.692" stroke-linecap="round" stroke-linejoin="round"/></svg>
